images_sukapura_svg/cmd/lc_trackchangesbar.svg

<svg viewBox="0 0 24 24" xmlns="http://www.w3.org/2000/svg" xmlns:xlink="http://www.w3.org/1999/xlink"><linearGradient id="a" gradientUnits="userSpaceOnUse" x1="15" x2="17" y1="7" y2="4.999999"><stop offset="0" stop-color="#fff"/><stop offset=".77967989" stop-color="#f1f1f1"/><stop offset="1" stop-color="#d5d5d5"/></linearGradient><radialGradient id="b" cx="17" cy="6.555555" gradientTransform="matrix(1.4285714 -.00000006 .00000006 1.4285714 -7.285714 -4.365078)" gradientUnits="userSpaceOnUse" r="7"><stop offset="0" stop-color="#d7d7d7"/><stop offset=".29999998" stop-color="#f7f7f7"/><stop offset="1" stop-color="#fff"/></radialGradient><path d="m5 3v3.7285156 2.6777344 11.246094.347656h.3515625 13.2968755.351562v-.347656-11.246094-2.6777344l-4-3.7285156h-6z" fill="url(#b)"/><path d="m5 2c-.554 0-1 .446-1 1v18c0 .554.446 1 1 1h4.1875 8.451172 1.365234c.137039-.00053.268151-.028142.386719-.078125.361002-.150582.613281-.505043.613281-.921875l-.003906-11.9589844v-1.7910156-.2089844c0-.4506799.098038-.4254121-.605469-1.0664062l-3.30664-3.2382813c-.709525-.7368575-.710169-.7363281-1.09375-.7363281h-.332032-.662109zm0 1h9v4c0 .554.446 1 1 1h4v1.0410156.3652344l.003906 11.242188-.003906.003906v.347656h-.351562-9.2148442-.4921876-3.9414062z" fill="#98989d"/><path d="m15 7h4l-4-4z" fill="#fff" fill-rule="evenodd"/><rect fill="#98989d" height="1" ry=".5" width="5" x="7" y="5"/><rect fill="#98989d" height="1" ry=".5" width="3" x="7" y="9"/><rect fill="#ff9f0a" height="1" ry=".5" width="5" x="12" y="9"/><rect fill="#ff9f0a" height="1" ry=".5" width="7" x="7" y="12"/><rect fill="#98989d" height="1" ry=".5" width="4" x="7" y="15"/><rect fill="#ff9f0a" height="1" ry=".474576" width="2" x="7" y="18"/><path d="m15 3 4 4h-4z" fill="url(#a)"/><g fill="#eac282" transform="translate(-2.602597 -1.200058)"><path d="m11.794252 19.654584-.794252 3.345416 2.979799-.95479z" fill="#a2a2a7" stroke="#848489" transform="translate(1 1)"/><path d="m21.527817 11.706205c-.189562 0-.378184.07172-.523438.216797l-1.673828 1.669922 2.847656 2.849609 1.710938-1.638672c.290506-.290127.290506-.756747 0-1.046875l-1.835938-1.833984c-.145254-.145064-.335828-.216797-.52539-.216797z" fill="#e68497" stroke="#b6496c"/><path d="m17.588364 13.317533-5.439453 5.433594c.648096.793958 1.89093 2.102781 2.714843 2.957031l.05078-.01367 5.509765-5.544922z" fill="#fc0" stroke="#c89e00" transform="translate(1 1)"/><path d="m21.093491 16.135775-1.284233-1.373643-6.299585 6.125687 1.263119 1.338035z" fill="#ffe014"/><path d="m20.379082 13.977391 1.118644-1.067797 1.703389 1.677967" fill="none" stroke="#f398b3"/></g></svg>

<?xml version="1.0" encoding="UTF-8" standalone="no"?>
<svg
   xmlns:dc="http://purl.org/dc/elements/1.1/"
   xmlns:cc="http://creativecommons.org/ns#"
   xmlns:rdf="http://www.w3.org/1999/02/22-rdf-syntax-ns#"
   xmlns:svg="http://www.w3.org/2000/svg"
   xmlns="http://www.w3.org/2000/svg"
   xmlns:xlink="http://www.w3.org/1999/xlink"
   xmlns:sodipodi="http://sodipodi.sourceforge.net/DTD/sodipodi-0.dtd"
   xmlns:inkscape="http://www.inkscape.org/namespaces/inkscape"
   viewBox="0 0 24 24"
   version="1.1"
   id="svg34"
   sodipodi:docname="lc_trackchangesbar.svg"
   inkscape:version="0.92.3 (2405546, 2018-03-11)"
   inkscape:export-filename="/home/rizmut/Documents/Rizmut/Github/libreoffice-style-sukapura/images_sukapura/cmd/lc_trackchangesbar.png"
   inkscape:export-xdpi="96"
   inkscape:export-ydpi="96">
  <metadata
     id="metadata40">
    <rdf:RDF>
      <cc:Work
         rdf:about="">
        <dc:format>image/svg+xml</dc:format>
        <dc:type
           rdf:resource="http://purl.org/dc/dcmitype/StillImage" />
      </cc:Work>
    </rdf:RDF>
  </metadata>
  <defs
     id="defs38">
    <linearGradient
       id="a"
       gradientUnits="userSpaceOnUse"
       x1="15"
       x2="17"
       y1="7"
       y2="4.999999">
      <stop
         offset="0"
         stop-color="#fff"
         id="stop924" />
      <stop
         offset=".77967989"
         stop-color="#f1f1f1"
         id="stop926" />
      <stop
         offset="1"
         stop-color="#d5d5d5"
         id="stop928" />
    </linearGradient>
    <radialGradient
       id="b"
       cx="17"
       cy="6.5555549"
       gradientTransform="matrix(1.4285714,-6e-8,6e-8,1.4285714,-7.285714,-4.365078)"
       gradientUnits="userSpaceOnUse"
       r="7">
      <stop
         offset="0"
         stop-color="#d7d7d7"
         id="stop931" />
      <stop
         offset=".29999998"
         stop-color="#f7f7f7"
         id="stop933" />
      <stop
         offset="1"
         stop-color="#fff"
         id="stop935" />
    </radialGradient>
    <radialGradient
       inkscape:collect="always"
       xlink:href="#b"
       id="radialGradient840"
       gradientUnits="userSpaceOnUse"
       gradientTransform="matrix(1.4285714,-6e-8,6e-8,1.4285714,-7.285714,-4.365078)"
       cx="17"
       cy="6.5555549"
       r="7" />
  </defs>
  <sodipodi:namedview
     pagecolor="#ffffff"
     bordercolor="#666666"
     borderopacity="1"
     objecttolerance="10"
     gridtolerance="10"
     guidetolerance="10"
     inkscape:pageopacity="0"
     inkscape:pageshadow="2"
     inkscape:window-width="1366"
     inkscape:window-height="685"
     id="namedview36"
     showgrid="true"
     inkscape:zoom="9.8333335"
     inkscape:cx="-3.4718951"
     inkscape:cy="7.4931688"
     inkscape:window-x="0"
     inkscape:window-y="0"
     inkscape:window-maximized="1"
     inkscape:current-layer="svg34"
     inkscape:snap-global="true">
    <inkscape:grid
       type="xygrid"
       id="grid1558" />
  </sodipodi:namedview>
  <path
     style="fill:url(#radialGradient840)"
     d="M 5,3 V 6.7285156 9.40625 20.652344 21 h 0.3515625 c 4.4322918,0 8.8645835,0 13.2968755,0 H 19 V 20.652344 9.40625 6.7285156 L 15,3 H 9 Z"
     id="path938"
     inkscape:connector-curvature="0"
     sodipodi:nodetypes="cccccccccccccc" />
  <path
     style="fill:#98989d;stroke:none;fill-opacity:1"
     d="M 5 2 C 4.446 2 4 2.446 4 3 L 4 21 C 4 21.554 4.446 22 5 22 L 9.1875 22 L 17.638672 22 L 19.003906 22 C 19.140945 21.99947 19.272057 21.971858 19.390625 21.921875 C 19.751627 21.771293 20.003906 21.416832 20.003906 21 L 20 9.0410156 L 20 7.25 L 20 7.0410156 C 20 6.5903357 20.098038 6.6156035 19.394531 5.9746094 L 16.087891 2.7363281 C 15.378366 1.9994706 15.377722 2 14.994141 2 L 14.662109 2 L 14 2 L 5 2 z M 5 3 L 14 3 L 14 7 C 14 7.554 14.446 8 15 8 L 19 8 L 19 9.0410156 L 19 9.40625 L 19.003906 20.648438 L 19 20.652344 L 19 21 L 18.648438 21 L 9.4335938 21 L 8.9414062 21 L 5 21 L 5 3 z "
     id="path4" />
  <path
     d="m15 7h4l-4-4z"
     fill="#fff"
     fill-rule="evenodd"
     id="path6" />
  <rect
     fill="#98989d"
     height="1"
     ry=".5"
     width="5"
     x="7"
     y="5"
     id="rect18" />
  <rect
     fill="#98989d"
     height="1"
     ry=".5"
     width="3"
     x="7"
     y="9"
     id="rect20" />
  <rect
     fill="#ff9f0a"
     height="1"
     ry=".5"
     width="5"
     x="12"
     y="9"
     id="rect22" />
  <rect
     fill="#ff9f0a"
     height="1"
     ry=".5"
     width="7"
     x="7"
     y="12"
     id="rect24" />
  <rect
     fill="#98989d"
     height="1"
     ry=".5"
     width="4"
     x="7"
     y="15"
     id="rect26" />
  <rect
     fill="#ff9f0a"
     height="1"
     ry=".474576"
     width="2"
     x="7"
     y="18"
     id="rect30" />
  <path
     inkscape:connector-curvature="0"
     style="fill:url(#a)"
     d="m 15,3 4,4 h -4 z"
     id="path944" />
  <g
     style="fill:#eac282"
     transform="translate(-2.6025973,-1.200058)"
     id="g941">
    <path
       inkscape:connector-curvature="0"
       d="M 11.794252,19.654584 11,23 13.979799,22.04521 Z"
       transform="translate(1,1)"
       id="path925"
       style="fill:#a2a2a7;fill-opacity:1;stroke:#848489;stroke-opacity:1"
       sodipodi:nodetypes="cccc" />
    <path
       style="fill:#e68497;stroke:#b6496c"
       inkscape:connector-curvature="0"
       d="m 21.527817,11.706205 c -0.189562,0 -0.378184,0.07172 -0.523438,0.216797 l -1.673828,1.669922 2.847656,2.849609 1.710938,-1.638672 c 0.290506,-0.290127 0.290506,-0.756747 0,-1.046875 l -1.835938,-1.833984 c -0.145254,-0.145064 -0.335828,-0.216797 -0.52539,-0.216797 z"
       id="path927"
       sodipodi:nodetypes="sccccccs" />
    <path
       style="fill:#ffcc00;stroke:#c89e00"
       inkscape:connector-curvature="0"
       d="m 17.588364,13.317533 -5.439453,5.433594 c 0.648096,0.793958 1.89093,2.102781 2.714843,2.957031 l 0.05078,-0.01367 5.509765,-5.544922 z"
       transform="translate(1,1)"
       id="path929"
       sodipodi:nodetypes="cccccc" />
    <path
       style="fill:#ffe014"
       inkscape:connector-curvature="0"
       d="m 21.093491,16.135775 -1.284233,-1.373643 -6.299585,6.125687 1.263119,1.338035 z"
       id="path931"
       sodipodi:nodetypes="ccccc" />
    <path
       inkscape:connector-curvature="0"
       style="fill:none;stroke:#f398b3"
       d="m 20.379082,13.977391 1.118644,-1.067797 1.703389,1.677967"
       id="path933"
       sodipodi:nodetypes="ccc" />
  </g>
</svg>
